img/social-icons/twitter.svg

<svg width="60" height="60" viewBox="0 0 60 60" fill="none" xmlns="http://www.w3.org/2000/svg">
<path fill-rule="evenodd" clip-rule="evenodd" d="M0 30C0 13.4315 13.4315 0 30 0C46.5685 0 60 13.4315 60 30C60 46.5685 46.5685 60 30 60C13.4315 60 0 46.5685 0 30Z" fill="#55ACEE"/>
<path fill-rule="evenodd" clip-rule="evenodd" d="M29.1015 24.3844L29.1645 25.4224L28.1152 25.2953C24.2961 24.8081 20.9596 23.1556 18.1267 20.3804L16.7417 19.0034L16.385 20.0203C15.6295 22.2871 16.1122 24.681 17.686 26.291C18.5254 27.1808 18.3365 27.3079 16.8886 26.7783C16.385 26.6088 15.9443 26.4817 15.9023 26.5453C15.7554 26.6935 16.2591 28.6214 16.6578 29.384C17.2034 30.4433 18.3155 31.4814 19.5326 32.0957L20.5609 32.583L19.3438 32.6042C18.1686 32.6042 18.1267 32.6254 18.2526 33.0702C18.6723 34.4473 20.33 35.909 22.1767 36.5446L23.4777 36.9895L22.3445 37.6674C20.6658 38.6419 18.6933 39.1927 16.7207 39.2351C15.7764 39.2563 15 39.341 15 39.4046C15 39.6164 17.5601 40.8028 19.05 41.2689C23.5197 42.6459 28.8287 42.0527 32.8157 39.7012C35.6486 38.0275 38.4815 34.7015 39.8035 31.4814C40.517 29.7654 41.2305 26.63 41.2305 25.1259C41.2305 24.1513 41.2934 24.0242 42.4686 22.8591C43.161 22.1811 43.8116 21.4397 43.9375 21.2278C44.1473 20.8253 44.1263 20.8253 43.0561 21.1854C41.2724 21.821 41.0206 21.7362 41.902 20.7829C42.5525 20.105 43.3289 18.8763 43.3289 18.5161C43.3289 18.4526 43.0141 18.5585 42.6574 18.7492C42.2797 18.961 41.4403 19.2788 40.8108 19.4694L39.6776 19.8296L38.6494 19.1305C38.0828 18.7492 37.2854 18.3255 36.8657 18.1983C35.7955 17.9017 34.1587 17.9441 33.1935 18.2831C30.5704 19.2364 28.9126 21.6939 29.1015 24.3844Z" fill="white"/>
</svg>

<svg xmlns="http://www.w3.org/2000/svg" width="60" height="60" fill="none" viewBox="0 0 60 60"><path fill="#55ACEE" fill-rule="evenodd" d="M0 30C0 13.431 13.431 0 30 0c16.569 0 30 13.431 30 30 0 16.569-13.431 30-30 30C13.431 60 0 46.569 0 30z" clip-rule="evenodd"/><path fill="#fff" fill-rule="evenodd" d="M29.102 24.384l.063 1.038-1.05-.127c-3.819-.487-7.155-2.14-9.988-4.915l-1.385-1.377-.357 1.017c-.756 2.267-.273 4.661 1.301 6.271.84.89.65 1.017-.797.487-.504-.17-.945-.296-.987-.233-.147.148.357 2.076.756 2.839.545 1.06 1.657 2.097 2.875 2.712l1.028.487-1.217.021c-1.175 0-1.217.021-1.091.466.42 1.377 2.077 2.839 3.924 3.475l1.3.444-1.133.678a11.815 11.815 0 0 1-5.623 1.568c-.945.021-1.721.106-1.721.17 0 .211 2.56 1.398 4.05 1.864 4.47 1.377 9.779.784 13.766-1.568 2.833-1.673 5.665-5 6.987-8.22.714-1.716 1.428-4.851 1.428-6.355 0-.975.062-1.102 1.238-2.267.692-.678 1.343-1.42 1.468-1.631.21-.403.19-.403-.88-.043-1.785.636-2.036.551-1.155-.402.65-.678 1.427-1.907 1.427-2.267 0-.063-.315.043-.672.233-.377.212-1.217.53-1.846.72l-1.133.36-1.029-.698c-.566-.382-1.364-.805-1.783-.933-1.07-.296-2.707-.254-3.672.085-2.624.953-4.281 3.41-4.093 6.101z" clip-rule="evenodd"/></svg>
